icons/desktop/16/svg/footprints-16.svg

<svg width="16" height="16" viewBox="0 0 16 16" fill="none" xmlns="http://www.w3.org/2000/svg">
<path fill-rule="evenodd" clip-rule="evenodd" d="M10.7168 3.23565C11.5202 2.63258 12.4766 2.45018 13.3701 2.70928C15.1779 3.23374 16.3067 5.34921 15.9248 8.19561C15.9018 8.36574 15.8348 8.59171 15.7695 8.79424C15.6978 9.0168 15.6047 9.28176 15.5029 9.55987C15.2991 10.117 15.0519 10.7511 14.8506 11.2591C14.6156 11.8515 14.4601 12.4694 14.3847 13.0999V13.1019L14.3457 13.4329L14.3398 13.4788L14.3291 13.5228L14.2148 13.9837C13.8201 15.5753 12.0345 16.4223 10.4746 15.7874C9.1788 15.26 8.58427 13.8567 8.89354 12.6097L8.97947 12.262L8.98924 12.223L9.00291 12.1849L9.46287 10.9183C9.44222 10.8621 9.41688 10.7991 9.39256 10.7288C9.29238 10.439 9.16485 10.0297 9.05467 9.55206C8.83881 8.61592 8.66821 7.32688 8.97264 6.12725C9.30606 4.81425 9.92127 3.83283 10.7168 3.23565ZM10.4258 12.6595L10.3496 12.969V12.971C10.2124 13.5244 10.4622 14.0999 10.9414 14.3519L11.04 14.3987L11.1855 14.4485C11.9102 14.6566 12.6094 14.2256 12.7588 13.6233L12.8584 13.219L12.8945 12.9222C12.9067 12.82 12.9208 12.7181 12.9365 12.6165L10.6621 12.0071L10.4258 12.6595ZM12.9521 4.15069C12.5378 4.03061 12.0658 4.09818 11.6172 4.43487C11.1605 4.77773 10.6983 5.42694 10.4267 6.49639C10.2093 7.35332 10.3206 8.36517 10.5166 9.21514C10.6123 9.63023 10.7236 9.98715 10.8105 10.2386C10.8524 10.3598 10.8877 10.4564 10.9131 10.5218L13.291 11.1585C13.3419 11.0066 13.3968 10.8557 13.456 10.7064C13.6556 10.2026 13.8977 9.58283 14.0947 9.04424C14.1934 8.77446 14.2786 8.53029 14.3418 8.33428C14.3734 8.23627 14.3978 8.15482 14.415 8.09112C14.4333 8.0237 14.4384 7.99549 14.4385 7.99541C14.767 5.54495 13.7604 4.3853 12.9521 4.15069Z" fill="black"/>
<path fill-rule="evenodd" clip-rule="evenodd" d="M2.63084 0.114555C3.52441 -0.144489 4.48071 0.0378246 5.28416 0.640923C6.07968 1.23815 6.69491 2.21945 7.0283 3.53252C7.33275 4.73224 7.16215 6.02118 6.94627 6.95733C6.83605 7.43519 6.70858 7.84425 6.60838 8.13409C6.5839 8.2049 6.55883 8.2681 6.53807 8.32452L6.99803 9.59014L7.0117 9.62823L7.02147 9.66729L7.1074 10.0159C7.39702 11.1852 6.89217 12.4914 5.75975 13.0843L5.52537 13.1927C3.96552 13.8275 2.18085 12.9814 1.78611 11.3899L1.67186 10.928L1.66111 10.8841L1.65526 10.8382L1.61522 10.5062C1.53989 9.87549 1.38341 9.25789 1.14842 8.66534C0.947117 8.15731 0.699909 7.52224 0.496075 6.96514C0.394305 6.68699 0.301188 6.4221 0.229474 6.19952C0.164217 5.99696 0.0971807 5.77199 0.0742003 5.60186C-0.307239 2.75529 0.822972 0.638986 2.63084 0.114555ZM3.06248 10.0208C3.07822 10.1224 3.09226 10.2243 3.10447 10.3265L3.13865 10.6136L3.24217 11.0286L3.27928 11.1468C3.49962 11.724 4.23438 12.0991 4.95994 11.804C5.5031 11.5831 5.79761 10.9666 5.65135 10.3763L5.65037 10.3743L5.57322 10.0648L5.33592 9.41241L3.06248 10.0208ZM4.38377 1.84014C3.93504 1.50331 3.46328 1.43584 3.04881 1.55596C2.24031 1.79049 1.23339 2.94998 1.56151 5.40069L1.58397 5.49639C1.60122 5.56011 1.62562 5.6415 1.65721 5.73956C1.72037 5.93559 1.80653 6.17967 1.90526 6.44952C2.10229 6.98804 2.34336 7.60792 2.54295 8.11163C2.60206 8.26066 2.65621 8.41128 2.70701 8.5628L5.0869 7.92608C5.11226 7.86066 5.14855 7.76493 5.19041 7.64385C5.27734 7.39241 5.38858 7.03568 5.48436 6.62041C5.68039 5.7704 5.79168 4.75867 5.5742 3.90166C5.30261 2.83204 4.84053 2.18302 4.38377 1.84014Z" fill="black"/>
</svg>

<!-- This Source Code Form is subject to the terms of the Mozilla Public
   - License, v. 2.0. If a copy of the MPL was not distributed with this
   - file, You can obtain one at http://mozilla.org/MPL/2.0/. -->
<svg xmlns="http://www.w3.org/2000/svg" width="16" height="16" fill="context-fill" fill-opacity="context-fill-opacity" viewBox="0 0 16 16">
    <path fill-rule="evenodd" d="M10.717 3.236c.803-.603 1.76-.786 2.653-.527 1.808.525 2.937 2.64 2.555 5.487-.023.17-.09.396-.155.598-.072.223-.165.488-.267.766a72 72 0 0 1-.652 1.7 7.4 7.4 0 0 0-.466 1.84v.002l-.04.33-.005.047-.01.044-.115.46c-.395 1.592-2.18 2.44-3.74 1.804-1.296-.527-1.89-1.93-1.581-3.177l.085-.348.01-.039.014-.038.46-1.267c-.02-.056-.046-.119-.07-.19-.1-.289-.228-.698-.338-1.176-.216-.936-.387-2.225-.082-3.425.333-1.313.948-2.294 1.744-2.891m-.291 9.424-.076.309v.002c-.138.553.112 1.129.591 1.38l.099.048.146.05c.724.208 1.423-.223 1.573-.826l.1-.404.036-.297q.018-.153.042-.306l-2.275-.609zm2.526-8.51c-.414-.12-.886-.052-1.335.285-.457.343-.919.992-1.19 2.061-.218.857-.106 1.87.09 2.72a10 10 0 0 0 .396 1.306l2.378.636q.076-.227.165-.452c.2-.503.442-1.123.639-1.662.098-.27.184-.514.247-.71q.047-.148.073-.243c.018-.067.023-.096.024-.096.328-2.45-.679-3.61-1.487-3.844M2.63.115c.894-.26 1.85-.077 2.654.526.796.597 1.41 1.578 1.744 2.892.305 1.2.134 2.488-.082 3.424-.11.478-.237.887-.338 1.177q-.038.106-.07.19l.46 1.266.014.038.01.04.085.348c.29 1.17-.215 2.475-1.347 3.068l-.235.109c-1.56.635-3.344-.212-3.739-1.803l-.114-.462-.01-.044-.007-.046-.04-.332a7.4 7.4 0 0 0-.467-1.84 73 73 0 0 1-.652-1.7A22 22 0 0 1 .23 6.2a4 4 0 0 1-.155-.598C-.307 2.755.823.639 2.631.115m.432 9.906q.024.152.042.305l.035.288.103.415.037.118c.22.577.955.952 1.68.657.544-.22.839-.837.692-1.428v-.002l-.078-.31-.237-.652zm1.322-8.18c-.449-.338-.92-.405-1.335-.285-.809.234-1.816 1.394-1.487 3.845l.022.095q.026.096.073.244c.063.196.15.44.248.71.197.538.438 1.158.638 1.662q.089.224.164.45l2.38-.636q.04-.099.103-.282c.087-.252.199-.608.294-1.024.196-.85.308-1.861.09-2.718-.271-1.07-.733-1.719-1.19-2.062" clip-rule="evenodd" />
</svg>
